src/assets/images/mdi_linkedin (1).svg

<svg width="30" height="31" viewBox="0 0 30 31" fill="none" xmlns="http://www.w3.org/2000/svg">
<g id="mdi:linkedin">
<path id="Vector" d="M23.75 4.69141C24.413 4.69141 25.0489 4.9548 25.5178 5.42364C25.9866 5.89248 26.25 6.52837 26.25 7.19141V24.6914C26.25 25.3544 25.9866 25.9903 25.5178 26.4592C25.0489 26.928 24.413 27.1914 23.75 27.1914H6.25C5.58696 27.1914 4.95107 26.928 4.48223 26.4592C4.01339 25.9903 3.75 25.3544 3.75 24.6914V7.19141C3.75 6.52837 4.01339 5.89248 4.48223 5.42364C4.95107 4.9548 5.58696 4.69141 6.25 4.69141H23.75ZM23.125 24.0664V17.4414C23.125 16.3606 22.6957 15.3242 21.9315 14.5599C21.1672 13.7957 20.1308 13.3664 19.05 13.3664C17.9875 13.3664 16.75 14.0164 16.15 14.9914V13.6039H12.6625V24.0664H16.15V17.9039C16.15 16.9414 16.925 16.1539 17.8875 16.1539C18.3516 16.1539 18.7967 16.3383 19.1249 16.6665C19.4531 16.9947 19.6375 17.4398 19.6375 17.9039V24.0664H23.125ZM8.6 11.6414C9.15695 11.6414 9.6911 11.4202 10.0849 11.0263C10.4788 10.6325 10.7 10.0984 10.7 9.54141C10.7 8.37891 9.7625 7.42891 8.6 7.42891C8.03973 7.42891 7.50241 7.65147 7.10624 8.04764C6.71007 8.44381 6.4875 8.98114 6.4875 9.54141C6.4875 10.7039 7.4375 11.6414 8.6 11.6414ZM10.3375 24.0664V13.6039H6.875V24.0664H10.3375Z" fill="black"/>
</g>
</svg>

<svg width="30" height="31" fill="none" xmlns="http://www.w3.org/2000/svg"><path d="M23.75 4.691a2.5 2.5 0 0 1 2.5 2.5v17.5a2.5 2.5 0 0 1-2.5 2.5H6.25a2.5 2.5 0 0 1-2.5-2.5v-17.5a2.5 2.5 0 0 1 2.5-2.5h17.5Zm-.625 19.375v-6.625a4.075 4.075 0 0 0-4.075-4.075c-1.063 0-2.3.65-2.9 1.625v-1.387h-3.487v10.462h3.487v-6.162c0-.963.775-1.75 1.738-1.75a1.75 1.75 0 0 1 1.75 1.75v6.162h3.487ZM8.6 11.641a2.1 2.1 0 0 0 2.1-2.1A2.107 2.107 0 0 0 8.6 7.43 2.112 2.112 0 0 0 6.488 9.54c0 1.163.95 2.1 2.112 2.1Zm1.738 12.425V13.604H6.875v10.462h3.463Z" fill="#000"/></svg>
